src/22/panel/riot-tray.svg

<svg xmlns="http://www.w3.org/2000/svg" width="22" height="22" version="1.1">
 <defs>
  <style id="current-color-scheme" type="text/css">
   .ColorScheme-Text { color:#dfdfdf; } .ColorScheme-Highlight { color:#4285f4; }
  </style>
 </defs>
 <path style="fill:currentColor;opacity:0.3" class="ColorScheme-Text" d="M 6.4628906 3 C 7.2627823 2.9893929 8.0544257 3.3626685 8.546875 4.0664062 C 8.7476351 4.3532772 8.8800861 4.672901 8.9472656 5.0058594 L 11.679688 5.0058594 C 13.772514 5.0058594 15.470703 6.401312 15.470703 8.4941406 C 15.470703 9.7409965 14.859565 10.731208 13.929688 11.335938 L 14.939453 12.779297 C 16.194201 11.776014 17 10.238839 17 8.5117188 C 17 5.4875473 14.537566 3.0351563 11.5 3.0351562 L 6.9042969 3.0351562 C 6.7584908 3.010515 6.6107762 2.9986469 6.4628906 3 z M 4.0039062 5.5195312 L 4 5.5234375 L 4 5.5585938 C 3.9997244 5.5456251 4.0039791 5.5325191 4.0039062 5.5195312 z M 4 5.5585938 L 4 16.474609 C 3.952187 19.840508 9.047813 19.840508 9 16.474609 L 9 13.986328 L 9.6796875 13.986328 L 9.6308594 13.916016 A 2.50025 2.50025 0 0 1 9.2050781 11.984375 L 6.7929688 11.984375 L 6.7929688 16.671875 C 6.8005975 17.211295 5.9865106 17.211295 5.9941406 16.671875 L 5.9941406 7.9414062 C 5.3919074 7.8163183 4.8329559 7.4763935 4.453125 6.9335938 C 4.165949 6.5232409 4.0103989 6.0480133 4 5.5585938 z M 8.9707031 5.8027344 C 8.9653172 5.846446 8.9686381 5.8898907 8.9609375 5.9335938 C 8.8449292 6.5915788 8.4803841 7.1656694 7.9335938 7.5488281 C 7.5830771 7.7944383 7.190812 7.9264782 6.7929688 7.9726562 L 6.7929688 11.185547 L 7.5898438 11.185547 L 9.5039062 11.185547 A 2.50025 2.50025 0 0 1 11.166016 10.003906 L 9 10.003906 L 9 7.0175781 L 11.5 7.0175781 C 12.375806 7.0175781 13 7.6397752 13 8.5117188 C 13 9.2568466 12.54243 9.8134225 11.863281 9.9609375 A 2.50025 2.50025 0 0 1 13.447266 10.708984 C 14.188527 10.252789 14.671875 9.4904836 14.671875 8.4941406 C 14.671875 6.8324581 13.341369 5.8027344 11.679688 5.8027344 L 9.5839844 5.8027344 L 8.9707031 5.8027344 z"/>
 <path style="fill:currentColor" class="ColorScheme-Text" d="M 6.4550781 3 C 5.9735512 3.0078894 5.4897443 3.1545349 5.0664062 3.4511719 C 4.5194675 3.8341824 4.1549232 4.4085696 4.0390625 5.0664062 C 3.9230543 5.7242428 4.0702236 6.3864567 4.453125 6.9335938 C 5.2436075 8.0632379 6.804692 8.3398598 7.9335938 7.5488281 C 8.4803841 7.1656694 8.8449292 6.5915788 8.9609375 5.9335938 C 9.076798 5.2760535 8.9297763 4.6135431 8.546875 4.0664062 C 8.0528235 3.3603788 7.257623 2.986851 6.4550781 3 z M 11.595703 9.953125 A 2.50025 2.50025 0 0 0 9.6308594 13.916016 L 12.423828 17.904297 A 2.50025 2.50025 0 1 0 16.519531 15.037109 L 13.728516 11.048828 A 2.50025 2.50025 0 0 0 11.595703 9.953125 z"/>
</svg>

<svg width="22" height="22" version="1.1" xmlns="http://www.w3.org/2000/svg">
 <defs>
  <style id="current-color-scheme" type="text/css">
   .ColorScheme-Text { color:#dedede; } .ColorScheme-Highlight { color:#4285f4; }
  </style>
 </defs>
 <g transform="translate(0 .00043665)" class="ColorScheme-Text" fill="currentColor">
  <path d="m6.463 3a2.499 2.499 0 0 1 2.484 2.006h2.733c2.093 0 3.79 1.395 3.79 3.488 0 1.247-0.61 2.237-1.54 2.842l1.01 1.443a5.451 5.451 0 0 0 2.06-4.267c0-3.024-2.462-5.477-5.5-5.477h-4.596a2.511 2.511 0 0 0-0.441-0.035zm-2.46 2.52-3e-3 3e-3v0.036c0-0.013 4e-3 -0.026 4e-3 -0.04zm-3e-3 0.039v10.916c-0.048 3.366 5.048 3.366 5 0v-2.489h0.68l-0.05-0.07a2.5 2.5 0 0 1-0.425-1.932h-2.412v4.688c8e-3 0.54-0.806 0.54-0.799 0v-8.73a2.486 2.486 0 0 1-1.994-2.384zm4.97 0.244c-5e-3 0.043-1e-3 0.087-0.01 0.13a2.464 2.464 0 0 1-2.168 2.04l1e-3 3.213h2.711a2.5 2.5 0 0 1 1.662-1.182h-2.166v-2.986h2.5c0.876 0 1.5 0.622 1.5 1.494 0 0.745-0.458 1.301-1.137 1.449a2.5 2.5 0 0 1 1.584 0.748c0.742-0.456 1.225-1.219 1.225-2.215 0-1.662-1.33-2.691-2.992-2.691z" opacity=".3"/>
  <path d="m6.455 3a2.483 2.483 0 0 0-1.389 0.451 2.485 2.485 0 0 0-1.026 1.615 2.5 2.5 0 0 0 3.895 2.482 2.486 2.486 0 0 0 1.025-1.613 2.5 2.5 0 0 0-2.505-2.935zm5.14 6.953a2.5 2.5 0 0 0-1.964 3.963l2.793 3.988a2.5 2.5 0 1 0 4.096-2.867l-2.791-3.988a2.5 2.5 0 0 0-2.133-1.096z"/>
 </g>
</svg>
